server/website/public/icons/base/notes.svg

<svg width="48" height="48" viewBox="0 0 48 48" fill="none" xmlns="http://www.w3.org/2000/svg">
<g clip-path="url(#clip0_1391_20086)">
<path d="M46.2218 6.72685L40.3245 0.761589C39.8176 0.272722 39.1441 0 38.4438 0C37.7434 0 37.0699 0.272722 36.563 0.761589L31.3192 6.08196H3.18771C2.34228 6.08196 1.53147 6.42167 0.933658 7.02638C0.335847 7.63108 0 8.45124 0 9.30642V44.7755C0 45.6307 0.335847 46.4509 0.933658 47.0556C1.53147 47.6603 2.34228 48 3.18771 48H38.2525C39.0979 48 39.9087 47.6603 40.5066 47.0556C41.1044 46.4509 41.4402 45.6307 41.4402 44.7755V15.3684L46.2218 10.5317C46.7201 10.0269 47 9.34267 47 8.62928C47 7.91589 46.7201 7.23166 46.2218 6.72685ZM23.6369 28.8628L16.9586 30.3622L18.5525 23.6714L33.7738 8.24235L38.9219 13.4499L23.6369 28.8628ZM40.6433 11.6119L35.4951 6.4044L38.4438 3.42177L43.5919 8.62928L40.6433 11.6119Z" fill="black"/>
</g>
<defs>
<clipPath id="clip0_1391_20086">
<rect width="48" height="48" fill="white"/>
</clipPath>
</defs>
</svg>

<svg width="48" height="48" fill="none" xmlns="http://www.w3.org/2000/svg"><g clip-path="url(#prefix__clip0_1391_20086)"><path d="M46.222 6.727L40.324.762A2.709 2.709 0 0038.444 0c-.7 0-1.374.273-1.881.762l-5.244 5.32H3.188a3.17 3.17 0 00-2.254.944A3.243 3.243 0 000 9.306v35.47c0 .855.336 1.675.934 2.28A3.17 3.17 0 003.188 48h35.064a3.17 3.17 0 002.255-.944 3.244 3.244 0 00.933-2.28V15.367l4.782-4.836A2.708 2.708 0 0047 8.629c0-.713-.28-1.397-.778-1.902zM23.637 28.863l-6.678 1.5 1.593-6.692L33.774 8.242l5.148 5.208-15.285 15.413zm17.006-17.251l-5.148-5.208 2.949-2.982 5.148 5.207-2.949 2.983z" fill="#000"/></g><defs><clipPath id="prefix__clip0_1391_20086"><path fill="#fff" d="M0 0h48v48H0z"/></clipPath></defs></svg>
